X: 1
T: Miss Lyall
R: strathspey
M: 4/4
L: 1/8
K: Ador
Bc>B|A<A,A,>B, C>DE>F|G>G{A}G>F G>cB>c|A<A,A,>B, C>D (3Bcd|(3efe (3dcB A>Bc>B|
A<A,A,>B, C>DE>F|G>DB,>D G>Bc>d|(3efe (3dcB c>AB>G|E<AA>G A>B^c>d||
e<aa>^g e>f=g>d|e<aa>f g>ef>d|e<aa>^g e>f=g>f|(3efe (3d=cB c>AB>G|
e<aa>^g e>f=g>d|e<aa>f g>fg>a|(3bc'b (3agf g>ef>d|(3efe (3d=cB A||


Tune 173	Setting 22352

